X:1
T:Christe qui lux es et dies
T:Christe qui lux es et dies
T:Michael Praetorius
C:Michael Praetorius
%%score [ 1 2 3 ]
L:1/8
Q:1/4=160
M:4/4
K:Cmin
V:1 treble nm="MusicXML Part"
V:2 treble nm="MusicXML Part"
V:3 treble-8 nm="MusicXML Part"
V:1
 F8 F4 z2 A2- | AG F2 A3 B c4 z4 | c16 | c8 z4 z2 e2- | ed c2 e2 f2 g4 z4 | c8 c8 | %6
w: Chri- ste, qui|_ lux es et di- es,|Chri-|ste, qui|_ lux es et di- es,|Chri- ste,|
 z2 e3 d c2 e2 f2 g4 | z2 G3 F E2 G2 A2 B4 | z2 c3 B A2 c2 _d2 c4 | z4 c4 c4 A4 | %10
w: qui lux es et di- es,|qui lux es et di- es,|qui lux es et di- es,|Chri- ste, qui|
 c2 BA G2 F2 G2 A2 G2 F2 | G12 A4 | A4 A4 c4 B2 A2 | B4 A4 A4 G2 F2 | G4 G4 c8 | z8 z2 B2 A2 c2 | %16
w: lux _ _ _ es et _ _ di-|es, noc-|tis te- ne- * *|* bras de- * *|* te- gis,|lu- cis- que|
 c2 G2 A4 B4 c4 | d4 e3 d c2 B2 A4- | A4 G4 A4 z2 A2 | A2 A2 A2 G2 c4 B2 A2 | G6 c3 B A4 G2- | %21
w: lu- men cre- de- ris,|lu- cis- que lu- men cre-|* de- ris, lu-|men be- a- tum prae- * di-|cans, prae- * * *|
 G2 F4 =E2 F4 z2 c2 | c2 c2 c8 B4 | A3 B c6 BA G2 F2 | =E8 z4 A4- | A2 B2 c4 B6 A2 | %26
w: * * di- cans, lu-|men be- a- tum|prae- * * * * * di-|cans, prae-||
 G2 A2 B2 c2 B6 AG | F12 =E2 D2 | =E4 E4 !fermata!F16 |] %29
w: ||* di- cans.|
V:2
 z4 c4 c8 | z2 A3 G F2 A3 B c4 | z2 G3 F E2 G2 A2 G4 | z2 c3 B A2 c2 _d2 c4 | A4 G2 F2 =E4 F4 | %5
w: Chri- ste,|qui lux es et di- es,|qui lux es et di- es,|qui lux es et di- es,|Chri- ste, qui lux, Chri-|
 F2 A3 G F2 A2 B2 c4 | z2 G3 F E2 G2 A2 E4 | E4 E4 z8 | F8 F8- | F4 A4 G4 F4 | A4 B4 c8- | %11
w: ste, qui lux es et di- es,|qui lux es et di- es,|Chri- ste,|Chri- ste,|_ qui lux es|et di- es,|
 c8 z4 c4 | c4 c4 e8- | e4 c4 c4 B2 A2 | B6 c2 A8 | z2 A2 A2 c2 B2 F4 A2- | A2 B2 c4 z2 G2 A2 c2 | %17
w: _ noc-|tis te- ne-|* bras de- * *|* te- gis,|lu- cis- que lu- men cre-|* de- ris, lu- cis- que|
 B4 G4 A8 | B8 c4 z2 c2 | c2 c2 c2 B2 A4 G2 F2 | =E6 A3 B c2 B4- | B2 A2 G2 G2 F4 z2 _E2 | %22
w: lu- men cre-|de- ris, lu-|men be- a- tum prae- * di-|cans, prae- * * *|* * * di- cans, lu-|
 E2 E2 A8 G4 | F3 G A8 B4 | G8 z4 F4- | F4 E2 F2 G6 A2 | B2 c2 B2 A2 G2 A2 B4 | A2 B2 A2 GF G8- | %28
w: men be- a- tum|prae- * * di-|cans, prae-||||
 G4 G4 !fermata!=A16 |] %29
w: * di- cans.|
V:3
 z8 F8- | F8 F8 | z2 E3 D C2 E2 F2 C4 | z2 A3 G F2 A2 B2 c2 c2- | cB A2 c2 _d2 c4 z4 | z16 | %6
w: Chri-|* ste,|qui lux es et di- es,|qui lux es et di- es, qui|_ lux es et di- es,||
 C8 C8 | z2 E3 D C2 E2 F2 G4 | z2 A3 G F2 A2 B2 F4 | z4 F4 =E4 F4- | F4 _E2 D2 C3 D E2 F2 | %11
w: Chri- ste,|qui lux es et di- es,|qui lux es et di- es,|Chri- ste, qui|_ lux es et _ _ di-|
 C2 D2 =E8 F4 | F4 A4 A4 G2 F2 | G4 A4 E4 E4 | E8 z2 A2 A2 c2 | B2 F2 A2 A2 B4 z4 | %16
w: es, _ _ noc-|tis te- ne- * *|* bras de- te-|gis, lu- cis- que|lu- men cre- de- ris,|
 z2 E2 A2 c2 B2 E2 A4 | B4 c2 C2 F8 | E6 E2 A8 | z16 | z16 | z8 z4 z2 A2 | A2 A2 A4 E8 | %23
w: lu- cis- que lu- men cre-|de- ris, lu- men|cre- de- ris,|||lu-|men be- a- tum|
 F6 E2 _D4 D4 | C8 z4 F4- | F2 G2 A4 E8 | E16 | F6 ED C8- | C4 C4 !fermata!F16 |] %29
w: prae- * * di-|cans, be-|* * * a-|tum|prae- * * *|* di- cans.|

